!!!!SEGMENT: pl-wnifc--6670-n--001-001_gall-jan-karol--piesni-polskie-na-chor-meski-z-i-1-o-opatrznosci-boga.krn
!!!cenid: 19xx:169
!!!COM: Gall, Jan Karol
!!!COM-rismID: pe50042628
!!!CDT: 1856-1912
!!!CNT: Polish
!!!GTL: Pieśni polskie na chór męski (z. I)
!!!OTL: 1. O opatrzności Boga
!!!OMV: 001
!!!PDT:
!!!AGN:
!!!YEC: Copyright 2022 Narodowy Instytut Fryderyka Chopina (https://polishscores.org)
!!!YEM: License CC-BY-4.0 (https://creativecommons.org/licenses/by/4.0)
!!!SMS-siglum: PL-Wnifc
!!!SMS-shelfmark: 6670/n
!!!SMS-variant:
!!!SMS-altvar:
!!!SMS-shelfwork: 001-001 G
!!!NIFC-rismSourceID: 1001152877
!!!NIFC-rismChildID: 1001152881
!!!NIFC-islandoraID: nifc:213182
!!!URL-pdf-islandora: https://repozytorium.nifc.pl/islandora/object/nifc:213182/datastream/PDF/view
!!!URL-scan: https://polish.musicsources.pl/pl/lokalizacje/galeria/druki-muzyczne/16895/2 @EN{Scan on Polish Music Sources Website} @PL{Skany w portalu Dziedzictwo Muzyki Polskiej w otwartym dostępie}
!!!IIIF:
!!!ONB-nifc:
!!!AIN: 1 bass 1 tenor
!!!key: A-
**kern	**dynam	**kern	**text	**text	**dynam
*part2	*part2	*part1	*part1	*part1	*part1
*staff2	*	*staff1	*staff1	*staff1	*
*ICvox	*	*ICvox	*	*	*
*Ibass	*	*Itenor	*	*	*
*I"Basy.	*	*I"Tenory.	*	*	*
*I'B	*	*I'T	*	*	*
*clefF4	*	*clefGv2	*	*	*
*k[b-e-a-d-]	*	*k[b-e-a-d-]	*	*	*
*A-:	*	*A-:	*	*	*
*M4/4	*	*M4/4	*	*	*
*met(c)	*	*met(c)	*	*	*
=1	=1	=1	=1	=1	=1
*^	*	*^	*	*	*
*	*	*	*	*	*v:1	*v:2	*
!	!	!	!LO:TX:a:B:t=Andante.	!	!	!	!
!	!	!LO:DY:rj	!LO:TX:t=P:problem:partia zapisana bez przenośnika oktawowego	!	!	!	!LO:DY:a:rj
(4E-/	2AA-\	mf	2e-/	(4c\	Bo-	Twa	mf
4C/)	.	.	.	4A-\)	.	.	.
4F/	4AA-\	.	4d-/	4A-\	że	do-	.
4E-/	4AA-\	.	4c/	4A-\	dla-	-bro-	.
=2	=2	=2	=2	=2	=2	=2	=2
2D-/	2D-\	.	2f/	2A-\	-te-	-czyn-	.
2E-/	2C\	.	2e-/	2A-\	-go	-ność	.
=3	=3	=3	=3	=3	=3	=3	=3
2E-/	2C\	.	2e-/	2A-\	da-	wszech-	.
4E-/	4BB-\	.	4d-/	4G\	-łeś	-moc-	.
4E-/	4AA-\	.	4c/	4A-\	nam	-ny	.
=4	=4	=4	=4	=4	=4	=4	=4
(4E-/	(4E-\	.	2c/	2A-\	ży-	Pa-	.
4F/)	4Dn\)	.	.	.	.	.	.
2G/	2E-\	.	2B-/	2G\	-cie	-nie	.
!!LO:LB:g=original
=5	=5	=5	=5	=5	=5	=5	=5
2E-/	2E-\	.	2B-/	2G\	by-	co	.
4A-/	4A-\	.	4c/	4A-\	-śmy	tro-	.
4A-/	4F\	.	4dn/	4B-\	cię	-ski	.
=6	=6	=6	=6	=6	=6	=6	=6
!	!	!	!	!	!	!	!LO:DY:a
2G/	2E-\	<	2e-/	(4B-\	czci-	na-	<
.	.	.	.	4e-\)	.	.	.
4c/	4A-\	.	4f/	4e-\	li,	sze	.
4c/	4An\	[	4f#X/	4e-\	ko-	tu	[
=7	=7	=7	=7	=7	=7	=7	=7
(2B-/	(2B-\	.	(2g/	[2e-\	-cha-	sło-	.
!	!	!	!	!	!	!	!LO:DY:a
2A-X/)	2BB-\)	>	2fn/)	(4e-\]	.	.	>
.	.	]	.	4dn\)	.	.	]
=8	=8	=8	=8	=8	=8	=8	=8
2G/	2E-\	.	2e-/	2e-\	-li.	-dzi.	.
2r	2ryy	.	2r	2ryy	.	.	.
!!LO:LB:g=original
=9	=9	=9	=9	=9	=9	=9	=9
!	!	!LO:DY:rj	!	!	!	!	!LO:DY:a:rj
2E-/	2C\	f	2e-/	2A-\	Pro-	I	f
4D-/	4D-\	.	4f/	4A-\	-żno	Twe	.
4E-/	4C\	.	4e-/	4A-\	zwo-	oj-	.
=10	=10	=10	=10	=10	=10	=10	=10
(4G-X/	2BB-\	.	(4e-/	(4An\	-dzi-	-co-	.
4F/)	.	.	4d-/)	4B-\)	.	.	.
2F/	2BB-\	.	2d-/	2B-\	-ciel	-wskie	.
=11	=11	=11	=11	=11	=11	=11	=11
!	!	!LO:DY:rj	!	!	!	!	!LO:DY:a:rj
2E-/	2BB-\	p	2d-/	2G\	cie-	o	p
4E-/	4C\	.	4e-/	4A-\	-szy	nas	.
4E-/	4BB-\	.	4d-/	4G\	się	sta-	.
=12	=12	=12	=12	=12	=12	=12	=12
(4F-X/	2AA-\	.	(4d-/	(4B-\	skry-	-ra-	.
4E-/)	.	.	4c/)	4A-\)	.	.	.
2E-/	2AA-\	.	2c/	2A-\	-cie	-nie	.
!!LO:LB:g=original
=13	=13	=13	=13	=13	=13	=13	=13
2E-/	2AA-\	.	2c/	2A-\	że	byt-	.
!	!	!	!	!	!	!	!LO:DY:a
4D-/	4FF\	<	4d-/	4A-\	Twe	-ność	<
4C/	4AA-\	[	4e-/	4A-\	oł-	nam	[
=14	=14	=14	=14	=14	=14	=14	=14
2D-/	2D-\	.	2f/	2A-\	-ta-	Two-	.
4E-/	4C\	.	4e-/	4A-\	-rze	-ją	.
4F/	4BB-\	.	4d-/	4A-\	o-	do-	.
*v	*v	*	*	*	*	*	*
=15	=15	=15	=15	=15	=15	=15
!	!	!	!	!	!	!LO:DY:a
1E-\	>	(2c/	(2.A-\	-ba-	-wo-	>
.	.	2B-/)	.	.	.	.
.	]	.	4G\)	.	.	]
=16	=16	=16	=16	=16	=16	=16
*^	*	*	*	*	*	*
2.C;/	2.AA-;\	.	2.A-;/	2.A-;\	-li.	-dzi!	.
4r	4ryy	.	4r	4ryy	.	.	.
*v	*v	*	*	*	*	*	*
*	*	*v	*v	*	*	*
==	==	==	==	==	==
*-	*-	*-	*-	*-	*-
!!!system-decoration: [(s1,s2)]
!!!ENC: Filip Voros
!!!END: 2024-05-02
!!!EED: Andrzej Borzym
!!!EEV: 2025-03-06
